_includes/icons/color-image-file.svg

<svg fill="#666" height="50" viewBox="0 0 48 48" width="50" xmlns="http://www.w3.org/2000/svg"><path d="m40 45h-32v-42h22l10 10z" fill="#90caf9"/><path d="m38.5 14h-9.5v-9.5z" fill="#e1f5fe"/><path d="m21 23-7 10h14z" fill="#1565c0"/><g fill="#1976d2"><path d="m28 26.398438-5 6.601562h10z"/><path d="m33 24.5c0 .828125-.671875 1.5-1.5 1.5s-1.5-.671875-1.5-1.5.671875-1.5 1.5-1.5 1.5.671875 1.5 1.5z"/></g></svg>

<svg xmlns="http://www.w3.org/2000/svg" viewBox="0 0 48 48" width="50" height="50" fill="#666"><path d="M 40 45 L 8 45 L 8 3 L 30 3 L 40 13 Z" fill="#90caf9"/><path d="M 38.5 14 L 29 14 L 29 4.5 Z" fill="#e1f5fe"/><path d="M 21 23 L 14 33 L 28 33 Z" fill="#1565c0"/><path d="M 28 26.398438 L 23 33 L 33 33 Z" fill="#1976d2"/><path d="M 33 24.5 C 33 25.328125 32.328125 26 31.5 26 C 30.671875 26 30 25.328125 30 24.5 C 30 23.671875 30.671875 23 31.5 23 C 32.328125 23 33 23.671875 33 24.5 Z" fill="#1976d2"/></svg>
